icons/send-plane-line.svg

<svg xmlns="http://www.w3.org/2000/svg" width="24" height="24" fill="none"><g clip-path="url(#a)"><g><path fill="#121212" d="M1.923 9.37004C1.413 9.16504 1.419 8.86004 1.957 8.68104L21.043 2.31904C21.572 2.14304 21.875 2.43904 21.727 2.95704L16.273 22.043C16.123 22.572 15.798 22.596 15.556 22.113L11 13L1.923 9.37004ZM6.813 9.17004L12.449 11.425L15.489 17.507L19.035 5.09704L6.812 9.17004H6.813Z"/></g></g><defs><clipPath id="a"><rect width="24" height="24" fill="white"/></clipPath></defs></svg>

<svg width="24" height="24" fill="none" xmlns="http://www.w3.org/2000/svg"><g clip-path="url(#a)"><path d="M1.923 9.37c-.51-.205-.504-.51.034-.689l19.086-6.362c.529-.176.832.12.684.638l-5.454 19.086c-.15.529-.475.553-.717.07L11 13 1.923 9.37Zm4.89-.2 5.636 2.255 3.04 6.082 3.546-12.41L6.812 9.17h.001Z" /></g><defs><clipPath id="a"><path fill="#fff" d="M0 0h24v24H0z"/></clipPath></defs></svg>
